X:112
M:6/8
T:Slip Jigs/Jigs 1 - Atholl Highlanders*
T: The Drops Of Brandy
R: slip jig
M: 9/8
L: 1/8
K: Amaj
|: ABA FDF FDF | ABA FDF GFE | ABA FDF FDF | GFG E2 F GFE :|
|: DFA dAF dAF | DFA dAF GFE | [1 DFA dAF dAF | GFG E2 F GFE :| [2 DFA dfe dAF | GFG E2 F GFE ||
T:Atholl Highlanders
K:A
|:"A"e3 ecA| "A"ecA "E7/G#"Bcd| "A"e3 ecA| "E"Bcd "A"cBA|
"A"e3 ecA | "A"ecA "E"Bcd | "A"eae "D"fed | "E"cdB "A"A3 :|
|:"A"Ace Ace | "D"Adf Adf | "A/E"Ace Ace | "E"Bcd cBA |
"A"Ace Ace | "D"Adf Adf | "A"eae "D"fed | "E"cdB "A"A3 :|
|:e| "A/C#"aee edc | "A/C#"aee edc | "A/C#"aee edc | "E7/B"Bcd cBA |
"A/C#"aee edc | "A/C#"aee edc | "A/C#"aee fed | "E7/B"cdB "A/C#"A3 :|
|: "A"B | "A"cAc cAc | "Bm"dBd dBd | "A"cAc cAc | "G"B=GB BGB |
"A"cAc cAc | "Bm"dBd dBd | "A"eae "D"fed | "E"cdB "A"A2 :|
%%newpage

